X: 107
T:Mist on the Mountain
T:Mist Covered Mountain, The
M:6/8
C:Junior Crehan
S:Mike Rafferty, Maire Breathneach
R:jig
D:De Dannan: Mist Covered Mountain
D:Martin Hayes
D:Secret of Roan Innis soundtrack (Mark Roberts flute)
Z:id:hn-jig-42
Z:lesl
K:Ador
A2G|:EA~A ABd|ecA AGE|~G3 GAB|dBA GED|EA~A ABd|
eca age|efg dBG|BAG A2G|
EA~A ABd|ecA AGE|~G3 GAB|dBA GED|EA~A ABd|
eca age|efg dBG|BAG A2a|
|1 age a2b|age edB|AGE G2A|BAB deg|
age a2b|age edB|AGE G2A|BAG A3|
age a2b|age edB|AGE G2A|BAB GED|
EDE G2A|BAG ABd|efg dBG|BAG A2G:|
|2 age a2b|age edB|AGE G2A|BAB ged|
age a2b|age edB|AGE G2A|BAG A3|
age a2b|age edB|AGE G2A|BAB GED|
EDE G2A|BAG ABd|efg dBG|BAG A3||
<end>
<start>
